X: 34129
T: Reel Du Cultivateur
R: reel
M: 4/4
K: Cmajor
(3GAB|:c3c cGce|d2(3BdB GBdf|edce dcBd|cBcA GcEG|
c3c cGce|d2 Bd GBdf|edce dcBd|1 cBcd c2 (3GAB:|2 cBcd (3cec GF||
|:EcGE cGEG|FcAF cFAc|GdBG dGBd|cedc BAGF|
EcGE cGEG|FcAF cFAc|GdBG dGBd|1 cBcd (3cec GF:|2 cBcd c2 (3GAB||

